public/flags/CAF.svg

<svg fill="none" height="53" viewBox="0 0 61 53" width="61" xmlns="http://www.w3.org/2000/svg" xmlns:xlink="http://www.w3.org/1999/xlink"><mask id="a" height="43" maskUnits="userSpaceOnUse" width="59" x="1" y="3"><rect fill="#fff" height="42.5" rx="4.24286" width="59" x="1" y="3"/></mask><rect fill="#fff" height="42.5" rx="4.24286" width="59" x="1" y="3"/><g mask="url(#a)"><path d="m1 3h59v42.5h-59z" fill="#19bfbf"/><g clip-rule="evenodd" fill="#fff" fill-rule="evenodd"><path d="m17.9164 14.6899c-.0371-.2239.0357-.452.1955-.6132l5.1571-5.20081c.1328-.13391.3135-.20923.5021-.20923h3.481c.2687 0 .5142.15229.6335.39303l1.0151 2.04731c.1193.2407.3648.393.6335.393h4.7417c.2687 0 .5142.1523.6335.393l3.8246 7.714c.1193.2407.3648.393.6335.393h2.3685c.5814 0 .9144.6626.5674 1.1291l-3.3366 4.4866c-.0253.0339-.0474.07-.0662.1079l-1.3029 2.628c-.0484.0976-.0736.2051-.0736.3141v2.5019c0 .109-.0252.2165-.0736.3142l-1.3312 2.6849-1.4047 2.8333-1.2099 2.4403c-.1194.2407-.3649.393-.6336.393h-1.9321c-.2687 0-.5142-.1523-.6336-.393l-1.1363-2.2919c-.0484-.0976-.0736-.2051-.0736-.3141v-8.0431c0-.1866-.0737-.3655-.205-.498l-1.0826-1.0918c-.0771-.0777-.135-.1721-.1693-.276l-1.1922-3.6069c-.0958-.2896-.3664-.4852-.6714-.4852h-5.9129c-.3461 0-.6413-.2504-.6977-.5918z"/><path d="m40.3335 32.0405c0-.3906.3166-.7072.7071-.7072h1.3953c.3905 0 .7071.3166.7071.7072v1.9605c0 .109-.0252.2165-.0736.3141l-1.1363 2.2919c-.1193.2407-.3648.393-.6335.393h-.259c-.3905 0-.7071-.3166-.7071-.7071z"/></g></g></svg>

<svg width="61" height="53" viewBox="0 0 61 53" fill="none" xmlns="http://www.w3.org/2000/svg">
<rect x="1" y="3" width="59" height="42.5" rx="4.24286" fill="white"/>
<mask id="mask0" mask-type="alpha" maskUnits="userSpaceOnUse" x="1" y="3" width="59" height="43">
<rect x="1" y="3" width="59" height="42.5" rx="4.24286" fill="white"/>
</mask>
<g mask="url(#mask0)">
<rect x="1" y="3" width="59" height="42.5" fill="#19BFBF"/>
<path fill-rule="evenodd" clip-rule="evenodd" d="M17.9164 14.6899C17.8793 14.466 17.9521 14.2379 18.1119 14.0767L23.269 8.87589C23.4018 8.74198 23.5825 8.66666 23.7711 8.66666H27.2521C27.5208 8.66666 27.7663 8.81895 27.8856 9.05969L28.9007 11.107C29.02 11.3477 29.2655 11.5 29.5342 11.5H34.2759C34.5446 11.5 34.7901 11.6523 34.9094 11.893L38.734 19.607C38.8533 19.8477 39.0988 20 39.3675 20H41.736C42.3174 20 42.6504 20.6626 42.3034 21.1291L38.9668 25.6157C38.9415 25.6496 38.9194 25.6857 38.9006 25.7236L37.5977 28.3516C37.5493 28.4492 37.5241 28.5567 37.5241 28.6657V31.1676C37.5241 31.2766 37.4989 31.3841 37.4505 31.4818L36.1193 34.1667L34.7146 37L33.5047 39.4403C33.3853 39.681 33.1398 39.8333 32.8711 39.8333H30.939C30.6703 39.8333 30.4248 39.681 30.3054 39.4403L29.1691 37.1484C29.1207 37.0508 29.0955 36.9433 29.0955 36.8343V28.7912C29.0955 28.6046 29.0218 28.4257 28.8905 28.2932L27.8079 27.2014C27.7308 27.1237 27.6729 27.0293 27.6386 26.9254L26.4464 23.3185C26.3506 23.0289 26.08 22.8333 25.775 22.8333H19.8621C19.516 22.8333 19.2208 22.5829 19.1644 22.2415L17.9164 14.6899Z" fill="white"/>
<path fill-rule="evenodd" clip-rule="evenodd" d="M40.3335 32.0405C40.3335 31.6499 40.6501 31.3333 41.0406 31.3333H42.4359C42.8264 31.3333 43.143 31.6499 43.143 32.0405V34.001C43.143 34.11 43.1178 34.2175 43.0694 34.3151L41.9331 36.607C41.8138 36.8477 41.5683 37 41.2996 37H41.0406C40.6501 37 40.3335 36.6834 40.3335 36.2929V32.0405Z" fill="white"/>
</g>
</svg>
